X: 730
T: Ey Verd-i Rânâ
C: Dede Efendi
O: Turkey
F: http://compmusic.upf.edu/node/140
N: sehnaz--sarki--aksaksemai--ey_verd-i_rana--dede_efendi
N: makam= sehnaz
N: form= sarki
N: usul= aksaksemai = 10/8
M: 10/8
L: 1/16
K: C _7/8B ^1/4f ^c ^g
Q: 1/4=132
%%MIDI tuningsystem comma53
a3/2g/a2 f3/2e/.d2 .e2fg fee4f2  | \
w:  ARANAĞME  | 
ga{=b}g2 a2bd' =c'bba aga6  | 
w:   | 
a2=g2 a=ba2 g^3/4fe2 f2ag =fed2  | \
w:   | 
=g2=f2 efed dccB BAA4a2  | 
w:   | 
a3/2g/a2 f3/2e/.d2 .e2fg fee4f2  | \
w:  ARANAĞME  | 
ga{=b}g2 a2bd' =c'bba aga6  | 
w:   | 
a2=g2 a=ba2 g^3/4fe2 f2ag =fed2  | \
w:   | 
=g2=f2 efed dccB BAA6  | 
w:   | 
a4 {=b}agg2 gfgf fee4z2  | e4 f2g2 fef2 g2a4z2  | 
w:  Ey  *  verd_ *  i  *  *  râ *  *  *  nâ   |  şûh_ i  me *  *  lek *  veş    | 
a4 {=b}agg2 gfgf fee4z2  | e4 f2g2 fef2 g2a4z2  | 
w:  Ey  *  verd_ *  i  *  *  râ *  *  *  nâ   |  şûh_ i  me *  *  lek *  veş    | 
a4 a=g=b2 agg^2/4f feag =fed2  | e2=f2 feed2{e}c(3ccB BAA2 ^3/4f=ga2  | 
w:  Hüsn_ ü  *  ce *  *  mâ *  *  *  lin   |  ga *  yet *  le  *  *  *  dil *  *  *  *  keş   SAZ  | 
a4 a=g=b2 agg^2/4f feag =fed2  | e2=f2 feed2{e}c(3ccB BAA2 Bcd2  | 
w:  Hüsn_ ü  *  ce *  *  mâ *  *  *  lin   |  ga *  yet *  le  *  *  *  dil *  *  *  *  keş   SAZ  | 
d4 c2B3/2A/ =G2cd edd4z2  | d2e2 f2g2 a2ag fgag fed2  | 
w:  Müm kün  de *  *  ğil *  *  *  dir   |  bul *  mak  sa *  na  *  *  *  eş    | 
d4 c2B3/2A/ =G2cd edd4z2  | d2e2 f2g2 a2ag fga4z2  | 
w:  Müm kün  de *  *  ğil *  *  *  dir   |  bul *  mak  sa *  na  *  *  *  eş    | 
a4 a=g=b2 agg^2/4f feag =fed2  | e2=f2 feed2{e}c(3ccB BAA2 ^3/4f=ga2  | 
w:  Yak tın  *  de *  *  rû *  *  *  num   |  mâ *  nend_ *  i  *  *  *  â *  *  *  *  teş   SAZ  | 
a4 a=g=b2 agg^2/4f feag =fed2  | e2=f2 feed2{e}c(3ccB BAA3.e.f.g  | 
w:  Yak tın  *  de *  *  rû *  *  *  num   |  mâ *  nend_ *  i  *  *  *  â *  *  *  *  teş   SAZ  | 
a3/2g/a2 f3/2e/.d2 .e2fg fee4f2  | \
w:  ARANAĞME  | 
ga{=b}g2 a2bd' =c'bba aga6  | 
w:   | 
a2=g2 a=ba2 g^3/4fe2 f2ag =fed2  | \
w:   | 
=g2=f2 efed dccB BAA4a2  | 
w:   | 
a3/2g/a2 f3/2e/.d2 .e2fg fee4f2  | \
w:  ARANAĞME  | 
ga{=b}g2 a2bd' =c'bba aga6  | 
w:   | 
a2=g2 a=ba2 g^3/4fe2 f2ag =fed2  | \
w:   | 
=g2=f2 efed dccB BAA6  | 
w:   | 
a4 {=b}agg2 gfgf fee4z2  | e4 f2g2 fef2 g2a4z2  | 
w:  Ey  *  verd_ *  i  *  *  râ *  *  *  nâ   |  şûh_ i  me *  *  lek *  veş    | 
a4 {=b}agg2 gfgf fee4z2  | e4 f2g2 fef2 g2a4z2  | 
w:  Ey  *  verd_ *  i  *  *  râ *  *  *  nâ   |  şûh_ i  me *  *  lek *  veş    | 
a4 a=g=b2 agg^2/4f feag =fed2  | e2=f2 feed2{e}c(3ccB BAA2 ^3/4f=ga2  | 
w:  Hüsn_ ü  *  ce *  *  mâ *  *  *  lin   |  ga *  yet *  le  *  *  *  dil *  *  *  *  keş   SAZ  | 
a4 a=g=b2 agg^2/4f feag =fed2  | e2=f2 feed2{e}c(3ccB BAA2 Bcd2  | 
w:  Hüsn_ ü  *  ce *  *  mâ *  *  *  lin   |  ga *  yet *  le  *  *  *  dil *  *  *  *  keş   SAZ  | 
d4 c2B3/2A/ =G2cd edd4z2  | d2e2 f2g2 a2ag fgag fed2  | 
w:  Müm kün  de *  *  ğil *  *  *  dir   |  bul *  mak  sa *  na  *  *  *  eş    | 
d4 c2B3/2A/ =G2cd edd4z2  | d2e2 f2g2 a2ag fga4z2  | 
w:  Müm kün  de *  *  ğil *  *  *  dir   |  bul *  mak  sa *  na  *  *  *  eş    | 
a4 a=g=b2 agg^2/4f feag =fed2  | e2=f2 feed2{e}c(3ccB BAA2 ^3/4f=ga2  | 
w:  Yak tın  *  de *  *  rû *  *  *  num   |  mâ *  nend_ *  i  *  *  *  â *  *  *  *  teş   SAZ  | 
a4 a=g=b2 agg^2/4f feag =fed2  | e2=f2 feed2{e}c(3ccB BAA3|
w:  Yak tın  *  de *  *  rû *  *  *  num   |  mâ *  nend_ *  i  *  *  *  â *  *  *  *  teş    | 


